report_00007_2020-12-11T15:55:29.892Z/metrics/comparison/sorted/7_vs_8.svg

<svg width="640" height="500" xmlns="http://www.w3.org/2000/svg" xmlns:xlink="http://www.w3.org/1999/xlink"><path fill="#fff" d="M0 0h640v500H0z"/><defs><path id="d" stroke-width=".222" stroke="currentColor" d="M-1-1h2v2h-2z"/><path id="b" stroke-width=".222" stroke="currentColor" d="M0-1.33l-1.33 2h2.66z"/><path id="f" stroke-width=".222" stroke="currentColor" d="M0 1.33L1.265.411.782-1.067l-1.564-.009-.483 1.487z"/><use xlink:href="#b" id="c" stroke="currentColor" transform="rotate(180)"/><use xlink:href="#d" id="e" stroke="currentColor" transform="rotate(45)"/><circle id="a" stroke-width=".222" stroke="currentColor" cx="0" cy="0" r="1"/></defs><g fill="none" color="#000" stroke="currentColor"><path stroke="#000" d="M62.2 403.2h9m543.8 0h-9"/><text transform="translate(53.9 407.1)" stroke="none" fill="#000" font-family="Arial" font-size="12" text-anchor="end"><tspan>1850</tspan></text></g><g fill="none" color="#000" stroke="currentColor"><path stroke="#000" d="M62.2 353.9h9m543.8 0h-9"/><text transform="translate(53.9 357.8)" stroke="none" fill="#000" font-family="Arial" font-size="12" text-anchor="end"><tspan>1900</tspan></text></g><g fill="none" color="#000" stroke="currentColor"><path stroke="#000" d="M62.2 304.6h9m543.8 0h-9"/><text transform="translate(53.9 308.5)" stroke="none" fill="#000" font-family="Arial" font-size="12" text-anchor="end"><tspan>1950</tspan></text></g><g fill="none" color="#000" stroke="currentColor"><path stroke="#000" d="M62.2 255.2h9m543.8 0h-9"/><text transform="translate(53.9 259.1)" stroke="none" fill="#000" font-family="Arial" font-size="12" text-anchor="end"><tspan>2000</tspan></text></g><g fill="none" color="#000" stroke="currentColor"><path stroke="#000" d="M62.2 205.9h9m543.8 0h-9"/><text transform="translate(53.9 209.8)" stroke="none" fill="#000" font-family="Arial" font-size="12" text-anchor="end"><tspan>2050</tspan></text></g><g fill="none" color="#000" stroke="currentColor"><path stroke="#000" d="M62.2 156.6h9m543.8 0h-9"/><text transform="translate(53.9 160.5)" stroke="none" fill="#000" font-family="Arial" font-size="12" text-anchor="end"><tspan>2100</tspan></text></g><g fill="none" color="#000" stroke="currentColor"><path stroke="#000" d="M62.2 107.2h9m543.8 0h-9"/><text transform="translate(53.9 111.1)" stroke="none" fill="#000" font-family="Arial" font-size="12" text-anchor="end"><tspan>2150</tspan></text></g><g fill="none" color="#000" stroke="currentColor"><path stroke="#000" d="M62.2 57.9h9m543.8 0h-9"/><text transform="translate(53.9 61.8)" stroke="none" fill="#000" font-family="Arial" font-size="12" text-anchor="end"><tspan>2200</tspan></text></g><g fill="none" color="#000" stroke="currentColor"><path stroke="#000" d="M62.2 446v-9m0-418.9v9"/><text transform="translate(62.2 467.9)" stroke="none" fill="#000" font-family="Arial" font-size="12" text-anchor="middle"><tspan>0</tspan></text></g><g fill="none" color="#000" stroke="currentColor"><path stroke="#000" d="M118 446v-9m0-418.9v9"/><text transform="translate(118 467.9)" stroke="none" fill="#000" font-family="Arial" font-size="12" text-anchor="middle"><tspan>10</tspan></text></g><g fill="none" color="#000" stroke="currentColor"><path stroke="#000" d="M173.9 446v-9m0-418.9v9"/><text transform="translate(173.9 467.9)" stroke="none" fill="#000" font-family="Arial" font-size="12" text-anchor="middle"><tspan>20</tspan></text></g><g fill="none" color="#000" stroke="currentColor"><path stroke="#000" d="M229.7 446v-9m0-418.9v9"/><text transform="translate(229.7 467.9)" stroke="none" fill="#000" font-family="Arial" font-size="12" text-anchor="middle"><tspan>30</tspan></text></g><g fill="none" color="#000" stroke="currentColor"><path stroke="#000" d="M285.6 446v-9m0-418.9v9"/><text transform="translate(285.6 467.9)" stroke="none" fill="#000" font-family="Arial" font-size="12" text-anchor="middle"><tspan>40</tspan></text></g><g fill="none" color="#000" stroke="currentColor"><path stroke="#000" d="M341.4 446v-9m0-418.9v9"/><text transform="translate(341.4 467.9)" stroke="none" fill="#000" font-family="Arial" font-size="12" text-anchor="middle"><tspan>50</tspan></text></g><g fill="none" color="#000" stroke="currentColor"><path stroke="#000" d="M397.2 446v-9m0-418.9v9"/><text transform="translate(397.2 467.9)" stroke="none" fill="#000" font-family="Arial" font-size="12" text-anchor="middle"><tspan>60</tspan></text></g><g fill="none" color="#000" stroke="currentColor"><path stroke="#000" d="M453.1 446v-9m0-418.9v9"/><text transform="translate(453.1 467.9)" stroke="none" fill="#000" font-family="Arial" font-size="12" text-anchor="middle"><tspan>70</tspan></text></g><g fill="none" color="#000" stroke="currentColor"><path stroke="#000" d="M508.9 446v-9m0-418.9v9"/><text transform="translate(508.9 467.9)" stroke="none" fill="#000" font-family="Arial" font-size="12" text-anchor="middle"><tspan>80</tspan></text></g><g fill="none" color="#000" stroke="currentColor"><path stroke="#000" d="M564.7 446v-9m0-418.9v9"/><text transform="translate(564.7 467.9)" stroke="none" fill="#000" font-family="Arial" font-size="12" text-anchor="middle"><tspan>90</tspan></text></g><path stroke="#000" d="M62.2 18.1V446H615V18.1H62.2z" fill="none" color="#000"/><text transform="translate(279.8 485.9)" stroke="none" fill="#000" font-family="Arial" font-size="12" text-anchor="end" color="#000"><tspan>pages+cached+noexternal+nosvg</tspan></text><path stroke="#9400D3" d="M288.1 482h42.2M62.2 437.8l5.6-1h44.7l5.5-1H201.8l5.6-1h67l5.6-1H380.5l5.6-1H497.7l5.6-.9h27.9l5.6-1h22.4l5.5-1h5.6l5.6-1 5.6-217.1 5.6-2.9 5.6-1h5.5l5.6-3 5.6-2L615 26.3" fill="none" color="#000"/><text transform="translate(579.3 485.9)" stroke="none" fill="#000" font-family="Arial" font-size="12" text-anchor="end" color="#000"><tspan>pages+cached+noexternal+noimg</tspan></text><path stroke="#009E73" d="M587.6 482h42.2M62.2 437.8H79l5.5-1h22.4l5.6-1H146l5.5-1H207.4l5.6-1h33.5l5.6-1.9 5.5-144.1 5.6-1 5.6-1 5.6-1h11.2l5.5-.9h5.6l5.6-1H319.1l5.5-1 5.6-1h5.6l5.6-66.1 5.6-1 5.6-1h5.5l5.6-1h27.9l5.6-1h11.2l5.6-1h67l5.6-.9h50.2l5.6-1h39.1l5.6-1h16.7l5.6-1 5.6-1" fill="none" color="#000"/><g fill="none" color="#000" stroke="currentColor"><path stroke="#000" d="M62.2 18.1V446H615V18.1H62.2z"/></g></svg>

<?xml version="1.0" encoding="utf-8"  standalone="no"?>
<svg 
 width="640" height="500"
 viewBox="0 0 640 500"
 xmlns="http://www.w3.org/2000/svg"
 xmlns:xlink="http://www.w3.org/1999/xlink"
>

<title>Gnuplot</title>
<desc>Produced by GNUPLOT 5.4 patchlevel 0 </desc>

<g id="gnuplot_canvas">

<rect x="0" y="0" width="640" height="500" fill="#ffffff"/>
<defs>

	<circle id='gpDot' r='0.5' stroke-width='0.5' stroke='currentColor'/>
	<path id='gpPt0' stroke-width='0.222' stroke='currentColor' d='M-1,0 h2 M0,-1 v2'/>
	<path id='gpPt1' stroke-width='0.222' stroke='currentColor' d='M-1,-1 L1,1 M1,-1 L-1,1'/>
	<path id='gpPt2' stroke-width='0.222' stroke='currentColor' d='M-1,0 L1,0 M0,-1 L0,1 M-1,-1 L1,1 M-1,1 L1,-1'/>
	<rect id='gpPt3' stroke-width='0.222' stroke='currentColor' x='-1' y='-1' width='2' height='2'/>
	<rect id='gpPt4' stroke-width='0.222' stroke='currentColor' fill='currentColor' x='-1' y='-1' width='2' height='2'/>
	<circle id='gpPt5' stroke-width='0.222' stroke='currentColor' cx='0' cy='0' r='1'/>
	<use xlink:href='#gpPt5' id='gpPt6' fill='currentColor' stroke='none'/>
	<path id='gpPt7' stroke-width='0.222' stroke='currentColor' d='M0,-1.33 L-1.33,0.67 L1.33,0.67 z'/>
	<use xlink:href='#gpPt7' id='gpPt8' fill='currentColor' stroke='none'/>
	<use xlink:href='#gpPt7' id='gpPt9' stroke='currentColor' transform='rotate(180)'/>
	<use xlink:href='#gpPt9' id='gpPt10' fill='currentColor' stroke='none'/>
	<use xlink:href='#gpPt3' id='gpPt11' stroke='currentColor' transform='rotate(45)'/>
	<use xlink:href='#gpPt11' id='gpPt12' fill='currentColor' stroke='none'/>
	<path id='gpPt13' stroke-width='0.222' stroke='currentColor' d='M0,1.330 L1.265,0.411 L0.782,-1.067 L-0.782,-1.076 L-1.265,0.411 z'/>
	<use xlink:href='#gpPt13' id='gpPt14' fill='currentColor' stroke='none'/>
	<filter id='textbox' filterUnits='objectBoundingBox' x='0' y='0' height='1' width='1'>
	  <feFlood flood-color='#FFFFFF' flood-opacity='1' result='bgnd'/>
	  <feComposite in='SourceGraphic' in2='bgnd' operator='atop'/>
	</filter>
	<filter id='greybox' filterUnits='objectBoundingBox' x='0' y='0' height='1' width='1'>
	  <feFlood flood-color='lightgrey' flood-opacity='1' result='grey'/>
	  <feComposite in='SourceGraphic' in2='grey' operator='atop'/>
	</filter>
</defs>
<g fill="none" color="#FFFFFF" stroke="black" stroke-width="1.00" stroke-linecap="butt" stroke-linejoin="miter">
</g>
<g fill="none" color="black" stroke="currentColor" stroke-width="1.00" stroke-linecap="butt" stroke-linejoin="miter">
	<path stroke='black'  d='M62.2,403.2 L71.2,403.2 M615.0,403.2 L606.0,403.2  '/>	<g transform="translate(53.9,407.1)" stroke="none" fill="black" font-family="Arial" font-size="12.00"  text-anchor="end">
		<text><tspan font-family="Arial" > 1850</tspan></text>
	</g>
</g>
<g fill="none" color="black" stroke="currentColor" stroke-width="1.00" stroke-linecap="butt" stroke-linejoin="miter">
	<path stroke='black'  d='M62.2,353.9 L71.2,353.9 M615.0,353.9 L606.0,353.9  '/>	<g transform="translate(53.9,357.8)" stroke="none" fill="black" font-family="Arial" font-size="12.00"  text-anchor="end">
		<text><tspan font-family="Arial" > 1900</tspan></text>
	</g>
</g>
<g fill="none" color="black" stroke="currentColor" stroke-width="1.00" stroke-linecap="butt" stroke-linejoin="miter">
	<path stroke='black'  d='M62.2,304.6 L71.2,304.6 M615.0,304.6 L606.0,304.6  '/>	<g transform="translate(53.9,308.5)" stroke="none" fill="black" font-family="Arial" font-size="12.00"  text-anchor="end">
		<text><tspan font-family="Arial" > 1950</tspan></text>
	</g>
</g>
<g fill="none" color="black" stroke="currentColor" stroke-width="1.00" stroke-linecap="butt" stroke-linejoin="miter">
	<path stroke='black'  d='M62.2,255.2 L71.2,255.2 M615.0,255.2 L606.0,255.2  '/>	<g transform="translate(53.9,259.1)" stroke="none" fill="black" font-family="Arial" font-size="12.00"  text-anchor="end">
		<text><tspan font-family="Arial" > 2000</tspan></text>
	</g>
</g>
<g fill="none" color="black" stroke="currentColor" stroke-width="1.00" stroke-linecap="butt" stroke-linejoin="miter">
	<path stroke='black'  d='M62.2,205.9 L71.2,205.9 M615.0,205.9 L606.0,205.9  '/>	<g transform="translate(53.9,209.8)" stroke="none" fill="black" font-family="Arial" font-size="12.00"  text-anchor="end">
		<text><tspan font-family="Arial" > 2050</tspan></text>
	</g>
</g>
<g fill="none" color="black" stroke="currentColor" stroke-width="1.00" stroke-linecap="butt" stroke-linejoin="miter">
	<path stroke='black'  d='M62.2,156.6 L71.2,156.6 M615.0,156.6 L606.0,156.6  '/>	<g transform="translate(53.9,160.5)" stroke="none" fill="black" font-family="Arial" font-size="12.00"  text-anchor="end">
		<text><tspan font-family="Arial" > 2100</tspan></text>
	</g>
</g>
<g fill="none" color="black" stroke="currentColor" stroke-width="1.00" stroke-linecap="butt" stroke-linejoin="miter">
	<path stroke='black'  d='M62.2,107.2 L71.2,107.2 M615.0,107.2 L606.0,107.2  '/>	<g transform="translate(53.9,111.1)" stroke="none" fill="black" font-family="Arial" font-size="12.00"  text-anchor="end">
		<text><tspan font-family="Arial" > 2150</tspan></text>
	</g>
</g>
<g fill="none" color="black" stroke="currentColor" stroke-width="1.00" stroke-linecap="butt" stroke-linejoin="miter">
	<path stroke='black'  d='M62.2,57.9 L71.2,57.9 M615.0,57.9 L606.0,57.9  '/>	<g transform="translate(53.9,61.8)" stroke="none" fill="black" font-family="Arial" font-size="12.00"  text-anchor="end">
		<text><tspan font-family="Arial" > 2200</tspan></text>
	</g>
</g>
<g fill="none" color="black" stroke="currentColor" stroke-width="1.00" stroke-linecap="butt" stroke-linejoin="miter">
	<path stroke='black'  d='M62.2,446.0 L62.2,437.0 M62.2,18.1 L62.2,27.1  '/>	<g transform="translate(62.2,467.9)" stroke="none" fill="black" font-family="Arial" font-size="12.00"  text-anchor="middle">
		<text><tspan font-family="Arial" > 0</tspan></text>
	</g>
</g>
<g fill="none" color="black" stroke="currentColor" stroke-width="1.00" stroke-linecap="butt" stroke-linejoin="miter">
	<path stroke='black'  d='M118.0,446.0 L118.0,437.0 M118.0,18.1 L118.0,27.1  '/>	<g transform="translate(118.0,467.9)" stroke="none" fill="black" font-family="Arial" font-size="12.00"  text-anchor="middle">
		<text><tspan font-family="Arial" > 10</tspan></text>
	</g>
</g>
<g fill="none" color="black" stroke="currentColor" stroke-width="1.00" stroke-linecap="butt" stroke-linejoin="miter">
	<path stroke='black'  d='M173.9,446.0 L173.9,437.0 M173.9,18.1 L173.9,27.1  '/>	<g transform="translate(173.9,467.9)" stroke="none" fill="black" font-family="Arial" font-size="12.00"  text-anchor="middle">
		<text><tspan font-family="Arial" > 20</tspan></text>
	</g>
</g>
<g fill="none" color="black" stroke="currentColor" stroke-width="1.00" stroke-linecap="butt" stroke-linejoin="miter">
	<path stroke='black'  d='M229.7,446.0 L229.7,437.0 M229.7,18.1 L229.7,27.1  '/>	<g transform="translate(229.7,467.9)" stroke="none" fill="black" font-family="Arial" font-size="12.00"  text-anchor="middle">
		<text><tspan font-family="Arial" > 30</tspan></text>
	</g>
</g>
<g fill="none" color="black" stroke="currentColor" stroke-width="1.00" stroke-linecap="butt" stroke-linejoin="miter">
	<path stroke='black'  d='M285.6,446.0 L285.6,437.0 M285.6,18.1 L285.6,27.1  '/>	<g transform="translate(285.6,467.9)" stroke="none" fill="black" font-family="Arial" font-size="12.00"  text-anchor="middle">
		<text><tspan font-family="Arial" > 40</tspan></text>
	</g>
</g>
<g fill="none" color="black" stroke="currentColor" stroke-width="1.00" stroke-linecap="butt" stroke-linejoin="miter">
	<path stroke='black'  d='M341.4,446.0 L341.4,437.0 M341.4,18.1 L341.4,27.1  '/>	<g transform="translate(341.4,467.9)" stroke="none" fill="black" font-family="Arial" font-size="12.00"  text-anchor="middle">
		<text><tspan font-family="Arial" > 50</tspan></text>
	</g>
</g>
<g fill="none" color="black" stroke="currentColor" stroke-width="1.00" stroke-linecap="butt" stroke-linejoin="miter">
	<path stroke='black'  d='M397.2,446.0 L397.2,437.0 M397.2,18.1 L397.2,27.1  '/>	<g transform="translate(397.2,467.9)" stroke="none" fill="black" font-family="Arial" font-size="12.00"  text-anchor="middle">
		<text><tspan font-family="Arial" > 60</tspan></text>
	</g>
</g>
<g fill="none" color="black" stroke="currentColor" stroke-width="1.00" stroke-linecap="butt" stroke-linejoin="miter">
	<path stroke='black'  d='M453.1,446.0 L453.1,437.0 M453.1,18.1 L453.1,27.1  '/>	<g transform="translate(453.1,467.9)" stroke="none" fill="black" font-family="Arial" font-size="12.00"  text-anchor="middle">
		<text><tspan font-family="Arial" > 70</tspan></text>
	</g>
</g>
<g fill="none" color="black" stroke="currentColor" stroke-width="1.00" stroke-linecap="butt" stroke-linejoin="miter">
	<path stroke='black'  d='M508.9,446.0 L508.9,437.0 M508.9,18.1 L508.9,27.1  '/>	<g transform="translate(508.9,467.9)" stroke="none" fill="black" font-family="Arial" font-size="12.00"  text-anchor="middle">
		<text><tspan font-family="Arial" > 80</tspan></text>
	</g>
</g>
<g fill="none" color="black" stroke="currentColor" stroke-width="1.00" stroke-linecap="butt" stroke-linejoin="miter">
	<path stroke='black'  d='M564.7,446.0 L564.7,437.0 M564.7,18.1 L564.7,27.1  '/>	<g transform="translate(564.7,467.9)" stroke="none" fill="black" font-family="Arial" font-size="12.00"  text-anchor="middle">
		<text><tspan font-family="Arial" > 90</tspan></text>
	</g>
</g>
<g fill="none" color="black" stroke="currentColor" stroke-width="1.00" stroke-linecap="butt" stroke-linejoin="miter">
</g>
<g fill="none" color="black" stroke="currentColor" stroke-width="1.00" stroke-linecap="butt" stroke-linejoin="miter">
	<path stroke='black'  d='M62.2,18.1 L62.2,446.0 L615.0,446.0 L615.0,18.1 L62.2,18.1 Z  '/></g>
<g fill="none" color="black" stroke="currentColor" stroke-width="1.00" stroke-linecap="butt" stroke-linejoin="miter">
</g>
	<g id="gnuplot_plot_1" ><title>pages+cached+noexternal+nosvg</title>
<g fill="none" color="black" stroke="currentColor" stroke-width="1.00" stroke-linecap="butt" stroke-linejoin="miter">
	<g transform="translate(279.8,485.9)" stroke="none" fill="black" font-family="Arial" font-size="12.00"  text-anchor="end">
		<text><tspan font-family="Arial" >pages+cached+noexternal+nosvg</tspan></text>
	</g>
</g>
<g fill="none" color="black" stroke="currentColor" stroke-width="1.00" stroke-linecap="butt" stroke-linejoin="miter">
	<path stroke='rgb(148,   0, 211)'  d='M288.1,482.0 L330.3,482.0 M62.2,437.8 L67.8,436.8 L73.4,436.8 L79.0,436.8 L84.5,436.8 L90.1,436.8
		L95.7,436.8 L101.3,436.8 L106.9,436.8 L112.5,436.8 L118.0,435.8 L123.6,435.8 L129.2,435.8 L134.8,435.8
		L140.4,435.8 L146.0,435.8 L151.5,435.8 L157.1,435.8 L162.7,435.8 L168.3,435.8 L173.9,435.8 L179.5,435.8
		L185.0,435.8 L190.6,435.8 L196.2,435.8 L201.8,435.8 L207.4,434.8 L213.0,434.8 L218.5,434.8 L224.1,434.8
		L229.7,434.8 L235.3,434.8 L240.9,434.8 L246.5,434.8 L252.1,434.8 L257.6,434.8 L263.2,434.8 L268.8,434.8
		L274.4,434.8 L280.0,433.8 L285.6,433.8 L291.1,433.8 L296.7,433.8 L302.3,433.8 L307.9,433.8 L313.5,433.8
		L319.1,433.8 L324.6,433.8 L330.2,433.8 L335.8,433.8 L341.4,433.8 L347.0,433.8 L352.6,433.8 L358.1,433.8
		L363.7,433.8 L369.3,433.8 L374.9,433.8 L380.5,433.8 L386.1,432.8 L391.6,432.8 L397.2,432.8 L402.8,432.8
		L408.4,432.8 L414.0,432.8 L419.6,432.8 L425.1,432.8 L430.7,432.8 L436.3,432.8 L441.9,432.8 L447.5,432.8
		L453.1,432.8 L458.7,432.8 L464.2,432.8 L469.8,432.8 L475.4,432.8 L481.0,432.8 L486.6,432.8 L492.2,432.8
		L497.7,432.8 L503.3,431.9 L508.9,431.9 L514.5,431.9 L520.1,431.9 L525.7,431.9 L531.2,431.9 L536.8,430.9
		L542.4,430.9 L548.0,430.9 L553.6,430.9 L559.2,430.9 L564.7,429.9 L570.3,429.9 L575.9,428.9 L581.5,211.8
		L587.1,208.9 L592.7,207.9 L598.2,207.9 L603.8,204.9 L609.4,202.9 L615.0,26.3  '/></g>
	</g>
	<g id="gnuplot_plot_2" ><title>pages+cached+noexternal+noimg</title>
<g fill="none" color="black" stroke="currentColor" stroke-width="1.00" stroke-linecap="butt" stroke-linejoin="miter">
	<g transform="translate(579.3,485.9)" stroke="none" fill="black" font-family="Arial" font-size="12.00"  text-anchor="end">
		<text><tspan font-family="Arial" >pages+cached+noexternal+noimg</tspan></text>
	</g>
</g>
<g fill="none" color="black" stroke="currentColor" stroke-width="1.00" stroke-linecap="butt" stroke-linejoin="miter">
	<path stroke='rgb(  0, 158, 115)'  d='M587.6,482.0 L629.8,482.0 M62.2,437.8 L67.8,437.8 L73.4,437.8 L79.0,437.8 L84.5,436.8 L90.1,436.8
		L95.7,436.8 L101.3,436.8 L106.9,436.8 L112.5,435.8 L118.0,435.8 L123.6,435.8 L129.2,435.8 L134.8,435.8
		L140.4,435.8 L146.0,435.8 L151.5,434.8 L157.1,434.8 L162.7,434.8 L168.3,434.8 L173.9,434.8 L179.5,434.8
		L185.0,434.8 L190.6,434.8 L196.2,434.8 L201.8,434.8 L207.4,434.8 L213.0,433.8 L218.5,433.8 L224.1,433.8
		L229.7,433.8 L235.3,433.8 L240.9,433.8 L246.5,433.8 L252.1,431.9 L257.6,287.8 L263.2,286.8 L268.8,285.8
		L274.4,284.8 L280.0,284.8 L285.6,284.8 L291.1,283.9 L296.7,283.9 L302.3,282.9 L307.9,282.9 L313.5,282.9
		L319.1,282.9 L324.6,281.9 L330.2,280.9 L335.8,280.9 L341.4,214.8 L347.0,213.8 L352.6,212.8 L358.1,212.8
		L363.7,211.8 L369.3,211.8 L374.9,211.8 L380.5,211.8 L386.1,211.8 L391.6,211.8 L397.2,210.8 L402.8,210.8
		L408.4,210.8 L414.0,209.8 L419.6,209.8 L425.1,209.8 L430.7,209.8 L436.3,209.8 L441.9,209.8 L447.5,209.8
		L453.1,209.8 L458.7,209.8 L464.2,209.8 L469.8,209.8 L475.4,209.8 L481.0,209.8 L486.6,208.9 L492.2,208.9
		L497.7,208.9 L503.3,208.9 L508.9,208.9 L514.5,208.9 L520.1,208.9 L525.7,208.9 L531.2,208.9 L536.8,208.9
		L542.4,207.9 L548.0,207.9 L553.6,207.9 L559.2,207.9 L564.7,207.9 L570.3,207.9 L575.9,207.9 L581.5,207.9
		L587.1,206.9 L592.7,206.9 L598.2,206.9 L603.8,206.9 L609.4,205.9 L615.0,204.9  '/></g>
	</g>
<g fill="none" color="#FFFFFF" stroke="rgb(  0, 158, 115)" stroke-width="2.00" stroke-linecap="butt" stroke-linejoin="miter">
</g>
<g fill="none" color="black" stroke="currentColor" stroke-width="2.00" stroke-linecap="butt" stroke-linejoin="miter">
</g>
<g fill="none" color="black" stroke="black" stroke-width="1.00" stroke-linecap="butt" stroke-linejoin="miter">
</g>
<g fill="none" color="black" stroke="currentColor" stroke-width="1.00" stroke-linecap="butt" stroke-linejoin="miter">
	<path stroke='black'  d='M62.2,18.1 L62.2,446.0 L615.0,446.0 L615.0,18.1 L62.2,18.1 Z  '/></g>
<g fill="none" color="black" stroke="currentColor" stroke-width="1.00" stroke-linecap="butt" stroke-linejoin="miter">
</g>
</g>
</svg>
